packages/calcite-ui-icons/icons/video-metadata-24.svg

<?xml version="1.0" encoding="UTF-8"?><svg id="icons" xmlns="http://www.w3.org/2000/svg" viewBox="0 0 24 24"><defs><style>.cls-1{fill:none;}.cls-2{fill:#231f20;}</style></defs><rect class="cls-1" width="24" height="24"/><path class="cls-2" d="M8,4v1H3v-1h5ZM10,6H3v1h7v-1ZM3,9h5v-1H3v1ZM3,11h3v-1h-3v1ZM3,13h3v-1h-3v1ZM3,15h3v-1h-3v1ZM3,17h3v-1h-3v1ZM16,4h-3v1h3v-1ZM16,6h-3v1h3v-1ZM13,9h3v-1h-3v1ZM23,11v13H7v-13h16ZM22,12h-14v11h14v-11ZM18,17.50079l-5,3.49921v-7l5,3.50079ZM14,19.08008l2.25586-1.5791-2.25586-1.58008v3.15918ZM2,2h15v8h1V1H1v19h5v-1H2V2Z"/></svg>

<svg xmlns="http://www.w3.org/2000/svg" viewBox="0 0 24 24"><path d="M0 0h24v24H0z" style="fill:none"/><path d="M8 4v1H3V4zm2 2H3v1h7zM3 9h5V8H3zm0 2h3v-1H3zm0 2h3v-1H3zm0 2h3v-1H3zm0 2h3v-1H3zM16 4h-3v1h3zm0 2h-3v1h3zm-3 3h3V8h-3zm10 2v13H7V11zm-1 1H8v11h14zm-4 5.5L13 21v-7zm-4 1.58 2.256-1.579L14 15.921zM2 2h15v8h1V1H1v19h5v-1H2z" style="fill:#231f20"/></svg>
